X:
T:L'Etoile Filante
C:Laurence Beaudry
N:© Laurence Beaudry, Reproduced with permission
Z:robin.beech@mcgill.ca
R:reel
M:4/4
L:1/8
K:Amin
ABcd eece | aged ecAE | ABcd eece | agec d2Bc |
dcBc BGBc | dcBc defe | dcBc dcde |1 fgfe dcBc :|2 cdBc A2ce |:
a2ed cAEA | cAFA dBgd | a2 ed ceAc | Bdga baa^g |
a2ed cAEA | dB GF (3EFG FA | GBdg afdc |1 BgBB aBbB :|2 BaBB ge [c2E2] |]

